src/assets/icons/terminal.svg

<?xml version="1.0" standalone="no"?><!DOCTYPE svg PUBLIC "-//W3C//DTD SVG 1.1//EN" "http://www.w3.org/Graphics/SVG/1.1/DTD/svg11.dtd"><svg t="1536996258809" class="icon" style="" viewBox="0 0 1024 1024" version="1.1" xmlns="http://www.w3.org/2000/svg" p-id="1670" xmlns:xlink="http://www.w3.org/1999/xlink" width="200" height="200"><defs><style type="text/css"></style></defs><path d="M774.50000029 962L249.49999971 962c-105.00000029 0-187.49999971-82.50000029-187.49999971-187.49999971L62 249.49999971c0-105.00000029 82.50000029-187.49999971 187.49999971-187.49999971l524.99999971 0c105.00000029 0 187.49999971 82.50000029 187.4999997 187.49999971l0 524.99999971C962 879.49999971 879.49999971 962 774.50000029 962zM249.49999971 136.99999971C185.75 136.99999971 136.99999971 185.75 136.99999971 249.49999971l0 524.99999971c0 63.74999971 48.75000029 112.5 112.5 112.5l524.99999971 0c63.74999971 0 112.5-48.75000029 112.5-112.5L887.00000029 249.49999971c0-63.74999971-48.75000029-112.5-112.5-112.5L249.49999971 136.99999971z" p-id="1671"></path><path d="M447.99999999 533.33333365c-12.8 0-21.333333-4.266667-29.866667-12.8l-128-128c-17.066667-17.066667-17.066667-42.666667 0-59.733333s42.666667-17.066667 59.733333 0l128 128c17.066667 17.066667 17.066667 42.666667 0 59.733333C469.33333299 529.06666665 460.79999999 533.33333365 447.99999999 533.33333365z" p-id="1672"></path><path d="M319.99999999 661.33333365c-12.8 0-21.333333-4.266667-29.866667-12.8-17.066667-17.066667-17.066667-42.666667 0-59.733333l128-128c17.066667-17.066667 42.666667-17.066667 59.733333 0s17.066667 42.666667 0 59.733333l-128 128C341.33333299 657.06666665 332.79999999 661.33333365 319.99999999 661.33333365z" p-id="1673"></path><path d="M703.99999999 661.33333365l-170.666667 0c-25.6 0-42.666667-17.066667-42.666667-42.666667s17.066667-42.666667 42.666667-42.666667l170.666667 0c25.6 0 42.666667 17.066667 42.666667 42.666667S729.59999999 661.33333365 703.99999999 661.33333365z" p-id="1674"></path></svg>

<svg class="icon" viewBox="0 0 1024 1024" xmlns="http://www.w3.org/2000/svg" width="200" height="200"><defs><style/></defs><path d="M774.5 962h-525C144.5 962 62 879.5 62 774.5v-525C62 144.5 144.5 62 249.5 62h525c105 0 187.5 82.5 187.5 187.5v525c0 105-82.5 187.5-187.5 187.5zm-525-825C185.75 137 137 185.75 137 249.5v525c0 63.75 48.75 112.5 112.5 112.5h525c63.75 0 112.5-48.75 112.5-112.5v-525c0-63.75-48.75-112.5-112.5-112.5h-525z"/><path d="M448 533.333c-12.8 0-21.333-4.266-29.867-12.8l-128-128c-17.066-17.066-17.066-42.666 0-59.733s42.667-17.067 59.734 0l128 128c17.066 17.067 17.066 42.667 0 59.733-8.534 8.534-17.067 12.8-29.867 12.8z"/><path d="M320 661.333c-12.8 0-21.333-4.266-29.867-12.8-17.066-17.066-17.066-42.666 0-59.733l128-128c17.067-17.067 42.667-17.067 59.734 0s17.066 42.667 0 59.733l-128 128c-8.534 8.534-17.067 12.8-29.867 12.8zm384 0H533.333c-25.6 0-42.666-17.066-42.666-42.666S507.733 576 533.333 576H704c25.6 0 42.667 17.067 42.667 42.667S729.6 661.333 704 661.333z"/></svg>
